X:140
T:The Weiser Teaser
M:C|
L:1/8
C:© Paul Gitlitz 1984
R:Reel
B:Giblitz Fancy, 141 Brand New Old Time Fiddle Tunes Vol. 2
K:G
"G"d2dBd2dB|"D7"cAFA cAFA|"G"d2dBd2AB|
1"D7"(3cBA FA"G"G2Bc:|2"D7"(3cBA FA"G"G3D|!
|:"G"DGdc BAGD|({FG}"C"F2)E2E4|"D7"DFBF AFEF|({EF}"G"E2)D2D4|!
"G"DGdc BAGD|({FG}"C"F2)E2E4|"D7"ABAG FDEF|"G"G2G,2G,4:|]
